X:1
T:Title
%%score { ( 1 4 ) | ( 2 3 ) }
L:1/8
M:3/4
K:C
V:1 treble nm="Grand Piano"
V:4 treble 
V:2 bass 
V:3 bass 
V:1
 z2 z2[Q:1/4=118] EF | [EG]2 ^F2 G2 | [Ge]2 c2 A2 | [EG]2 E2 F2 | [EG]4 G2 | [FG]2 B2 A2 | %6
 [EG]2 F2 D2 | [CE]2 F2 A2 | [EG]4 EF | [EG]2 ^F2 G2 | [Ge]2 c2 A2 | [EG]2 E2 F2 | [EG]4 EG | %13
 [Ec]2 B2 c2 | [GB]2 A2 B2 | [CA]2 E2 ^F2 |[M:5/8] G2- [FG]3 |[M:6/4] z2 B4- B4 z2 | %18
 z2 G4- G2 z2 z2 | z2 d4- d2 z2 z2 | z2 c4- c2 z2 z2 | [EG][Ec] [Ge]2 [Ge]2 [Ge]2 [Ge]2 [Fd]2 | %22
 z2 [Af]4- [Af]2 [FA]4 | c2 B2 B2 B2 [DB]2 [Ec]2 |[M:5/4] [Fd]2 [Ec]2- [Ec]6- | [Ec]2 z2 z2 z4 |] %26
V:2
 z2 z2 CD | z2 _E2 =E2 | z2[K:treble] A2 F2 | z2 C2 D2 | z2 z2 E2 | z2[K:treble] F2 F2 | %6
 z2 D2 B,2 | z2 D2 F2 | C,4 CD | z2 _E2 =E2 | z2[K:treble] A2 F2 | z2 C2 D2 | z2 z2 CE | z2 D2 E2 | %14
 z2[K:treble] ^F2 G2 | z2 C2 C2 |[M:5/8] G,,-G,,- G,,3 | %17
[M:6/4][K:treble] [G,B,F]2 [G,DF]2 [G,D]2 [G,D]2 [G,D]2 [G,CF]2 | %18
 [G,B,F]2[K:bass] [C,C]4 [C,C]2 [C,G,]4 | %19
 [E,C]2[K:treble] [G,B,F]2 [G,B,]2 [G,B,]2 [G,B,F]2 [G,CE]2 | [G,D]2 [C,C]4 [C,G,]2 [C,C]4 | %21
 [C,C][C,C] [C,C]2 [C,C]2 [C,C]2 [C,C]2 [C,C]2 | [C,C]2 [F,C]2 F,2 F,2 F,2 F,2 | %23
 [F,A,F]2 [G,D]2 [G,D]2 [G,D]2 [G,,G,]2 [G,,G,]2 |[M:5/4] [G,,G,]2 [C,G,]2- [C,G,]6- | %25
 [C,G,]2 z2 z2 z4 |] %26
V:3
 x6 | C,6 | C,6[K:treble] | C,6 | C,6 | G,,6[K:treble] | G,,6 | C,6 | x6 | C,6 | C,6[K:treble] | %11
 C,6 | C,6 | A,,6 | D,6[K:treble] | D,,6 |[M:5/8] x5 |[M:6/4][K:treble] x12 | x2[K:bass] x10 | %19
 x2[K:treble] x10 | x12 | x12 | x12 | x12 |[M:5/4] x10 | x10 |] %26
V:4
 x6 | x6 | x6 | x6 | x6 | x6 | x6 | x6 | x6 | x6 | x6 | x6 | x6 | x6 | x6 | x6 |[M:5/8] B,2 z z2 | %17
[M:6/4] .G4 F2 F2 F2 A2 | G2 E4 E2 [Ec]4 | .[Gc]4 F2 F2 d2 c2 | B2 E4 E2 [Ge]4 | x12 | %22
 .[Ge]4 C2 C2 C2 C2 | x12 |[M:5/4] x10 | x10 |] %26

